X: 1
T: Old Faithful
C: Jerry Holland
R: march
Z: 2016 John Chambers <jc:trillian.mit.edu>
S: printed page labelled "Arr BMcO 2/11" from Concord Slow Scottish Session collection
M: C|
L: 1/8
K: D
ag "A"|\
"D"f2ed "A7"c2Bc | "D"d2AG "D7"F2ED |\
"G"{F}GFGB "D"AFd>A | "A7"F2E2 E2ag |\
"D"f2ef "A7"g>edc | "D"d>ABG "D7"F2ED |
"G"GBd>B "A7"A>FG>E | "D"F2D2 D2 :|\
fg "B1"|\
"D"abag "D7"f2ef | "G"gage "A7"c2BA |\
"D"{e}dcde "Bm"f<agf | "Em7"e2E2 "A7"E2fg |
"D"abag f2ef | "A7"gedc "Bm"d2((3AB=c) |\
"G"BAG>B "A7"A>FG<E | "D"F2D2 D2 |]|\
fg "B2"|\
"D"abag f2ef | "A7"gedc "D7"d2(3(AB=c) |
"G"BAGB "F#m"AFd<A | "Em7"F2E2 "A7"EGFE |\
"D"D>FA<d "Em"E>GB<e | "F#m"F>Adf "G"g2bg |\
"D"a>fe>d "A7"c>ba<g | "D"f2d2 d2 |]

%%sep 1 1 500

